X: 1127
T: Hüzzam Seyir
C: Şefik Gürmeriç
O: Turkey
F: http://compmusic.upf.edu/node/140
N: huzzam--seyir--duyek--1--sefik_gurmeric
N: makam= huzzam
N: form= seyir
N: usul= duyek = 8/4
M: 8/4
L: 1/16
K: C _1/4B _3/4e ^3/4f 
Q: 1/4=120
%%MIDI tuningsystem comma53
c2 d4 d2 de dc B4  | z2 c4 d2 e2 g2 f2 e2  | \
w:   |   | 
d2 _b2 a2 g2 f3e fe ed  | 
w:   | 
d12 z4  | z2 d4 c2 B3^A B4  | g3f e2 g2 f8  | \
w:   |   |   | 
z2 g4 ^a2 b2 c'd' c'2 b2  | 
w:   | 
b3^a g2 a2 b8  | z2 c'2 _b2 a2 a3g ag gf  | \
w:   |   | 
f8 gf ed d4  | 
w:   | 
z2 d4 e2 f2 g2 a2 _b2  | a2 g2 g2 f2 g8  | \
w:   |   | 
f2 a2 g2 gf f3e fe ed  | 
w:   | 
d8 gf ed cB c2  | z2 d2 e2 g2 f2 e2 e2 d2  | \
w:   |   | 
d3c dc cB {^A}B8  | 
w:   | 
|


